projects/seb-pictograms/svg/regular/67-Picto-Regular_black.svg

<svg xmlns="http://www.w3.org/2000/svg" viewBox="0 0 170 170"><path d="M130.6 5H39.4a14 14 0 00-14 14v131.5a14 14 0 0014 14h91.2a14 14 0 0014-14V19a14 14 0 00-14-14zm-91.2 6h91.2a8 8 0 018 8v13.1H31.4V19a8 8 0 018-8zm99.2 27.1v92.8H31.4V38.1zm-8 120.3H39.4a8 8 0 01-8-8v-13.5h107.2v13.5a8 8 0 01-8 8.1z"/><path d="M78.3 144.5h13.4v6H78.3z"/></svg>

<svg id="PIKTO_REGULAR" xmlns="http://www.w3.org/2000/svg" viewBox="0 0 170 170"><title>regular_black</title><path d="M130.6,5H39.4a14,14,0,0,0-14,14V150.5a14,14,0,0,0,14,14h91.2a14,14,0,0,0,14-14V19A14,14,0,0,0,130.6,5ZM39.4,11h91.2a8,8,0,0,1,8,8V32.1H31.4V19A8,8,0,0,1,39.4,11Zm99.2,27.1v92.8H31.4V38.1Zm-8,120.3H39.4a8,8,0,0,1-8-8V136.9H138.6v13.5A8,8,0,0,1,130.6,158.5Z"/><rect x="78.3" y="144.5" width="13.4" height="6"/></svg>
